X: 55
T: The Dashing White Sergeant
B: begged borrowed and stolen
M:2/4
L:1/8
R: polka
Q: 1/4=100
K:Dmajor
V:1 
F3E|:DD D/E/F/G/|AF A f/e/|dB AF|BE EF/E/|
 DD D/E/F/G/|AF Af|ed cB|A A/B/ A/G/F/E/|
 DD D/E/F/G/|AF Af/e/|dB AF|BE EF/E/|
 DD D/E/F/G/|AF Af|ed cB|A2 AE|
 A A/B/ c/B/c/d/|ec AA|B B/c/ d/c/d/e/|fB BB|
 cA dA|eA fA|gf ed|cB AA/G/|Fd d/c/d/e/|
 dA AA|Be e/d/e/f/|eB B B|Ad d/c/d/e/|
 fd d/c/d/e/|f2 a2|1 dc/B/ A/G/F/E/:|2 d4||
% abcbook-tune_id 62828a3a87ede7de4c235e79


% abcbook-boost 0
% abcbook-tablature 
% abcbook-transpose 
% abcbook-lastupdated 1652725431085
% abcbook-soundfonts 
% abcbook-repeats 3
% abc-sessionorg_id 6319
% abc-sessionorg_setting 0
% abc-sessionorg_setting_id 6319
% abc-boost 0

